X:471
T:A Man's a Man for A' That
D:World of Arthur Spink
Z:Nigel Gatherer
R:waltz
M:3/4
L:1/4
K:A
E | A2B | A2E | F2A | B2d | c2B | A2E | F3  | F2
E | A2B | A2E | F2A | B2d | c2B | A2F | E3  | E2 ||
d | c2d | e2c | d2c | B2d | c2d | e2E | F3  | F2
d | c2d | e2c | f2B | B2d | c2B | A2F | E3  | E2 |]
<end>
<start>
